;FLAVOR:Marlin
;TIME:260
;Filament used: 0.108239m
;Layer height: 0.13125
;Generated with Cura_SteamEngine 4.0.0
M140 S65
M105
M190 S65
M104 S205
M105
M109 S205
M82 ;absolute extrusion mode
G21;(metric values)
G90;(absolute positioning)
M82;(set extruder to absolute mode)
M107;(start with the fan off)
G28;(Home the printer)
G92 E0;(Reset the extruder to 0)
G0 Z5 E5 F500;(Move up and prime the nozzle)
G0 X-1 Z0;(Move outside the printable area)
G1 Y60 E8 F500;(Draw a priming/wiping line to the rear)
G1 X-1;(Move a little closer to the print area)
G1 Y10 E16 F500;(draw more priming/wiping)
G1 E15 F250;(Small retract)
G92 E0;(Zero the extruder)
G92 E0
G1 F2400 E-2.5
;LAYER_COUNT:41
;LAYER:0
M107
G0 F4320 X45.456 Y49.19 Z0.263
;TYPE:SKIRT
G1 F2400 E0
G1 F1800 X45.903 Y48.859 E0.02129
G1 X46.393 Y48.595 E0.04259
G1 X46.916 Y48.405 E0.06388
G1 X47.461 Y48.292 E0.08518
G1 X47.977 Y48.257 E0.10498
G1 X72.023 Y48.258 E1.02521
G1 X72.578 Y48.298 E1.04651
G1 X73.122 Y48.417 E1.06782
G1 X73.643 Y48.613 E1.08912
G1 X74.13 Y48.881 E1.1104
G1 X74.574 Y49.216 E1.13168
G1 X74.966 Y49.612 E1.15301
G1 X75.296 Y50.059 E1.17427
G1 X75.56 Y50.549 E1.19557
G1 X75.75 Y51.072 E1.21687
G1 X75.863 Y51.617 E1.23817
G1 X75.898 Y52.133 E1.25796
G1 X75.898 Y67.868 E1.86014
G1 X75.858 Y68.423 E1.88143
G1 X75.739 Y68.967 E1.90274
G1 X75.543 Y69.487 E1.92401
G1 X75.275 Y69.975 E1.94532
G1 X74.94 Y70.419 E1.9666
G1 X74.544 Y70.81 E1.9879
G1 X74.097 Y71.141 E2.00919
G1 X73.607 Y71.405 E2.03049
G1 X73.084 Y71.595 E2.05178
G1 X72.539 Y71.708 E2.07308
G1 X72.023 Y71.743 E2.09288
G1 X47.977 Y71.743 E3.01311
G1 X47.422 Y71.703 E3.03441
G1 X46.878 Y71.584 E3.05572
G1 X46.358 Y71.388 E3.07699
G1 X45.87 Y71.12 E3.09829
G1 X45.426 Y70.785 E3.11958
G1 X45.035 Y70.389 E3.14088
G1 X44.704 Y69.942 E3.16216
G1 X44.44 Y69.452 E3.18346
G1 X44.25 Y68.929 E3.20476
G1 X44.137 Y68.384 E3.22606
G1 X44.102 Y67.868 E3.24585
G1 X44.102 Y52.132 E3.84807
G1 X44.142 Y51.577 E3.86936
G1 X44.261 Y51.033 E3.89067
G1 X44.457 Y50.513 E3.91194
G1 X44.725 Y50.025 E3.93325
G1 X44.977 Y49.691 E3.94926
G0 F1620 X45.06 Y49.581
G0 X45.456 Y49.19
G0 F4320 X45.797 Y49.362
G1 F2400 E3.97582
G1 F1800 X46.238 Y49.066 E3.99615
G1 X46.718 Y48.84 E4.01645
G1 X47.226 Y48.688 E4.03674
G1 X47.977 Y48.607 E4.06565
G1 X72.023 Y48.608 E4.98589
G1 X72.552 Y48.648 E5.00619
G1 X73.069 Y48.767 E5.02649
G1 X73.563 Y48.962 E5.04682
G1 X74.021 Y49.229 E5.06711
G1 X74.435 Y49.562 E5.08744
G1 X74.793 Y49.953 E5.10773
G1 X75.089 Y50.394 E5.12806
G1 X75.315 Y50.874 E5.14836
G1 X75.467 Y51.382 E5.16865
G1 X75.548 Y52.133 E5.19756
G1 X75.548 Y67.868 E5.79974
G1 X75.508 Y68.397 E5.82004
G1 X75.389 Y68.914 E5.84034
G1 X75.194 Y69.408 E5.86067
G1 X74.927 Y69.866 E5.88096
G1 X74.594 Y70.28 E5.90129
G1 X74.203 Y70.638 E5.92158
G1 X73.762 Y70.934 E5.9419
G1 X73.282 Y71.16 E5.96221
G1 X72.774 Y71.312 E5.9825
G1 X72.023 Y71.393 E6.01141
G1 X47.977 Y71.393 E6.93165
G1 X47.448 Y71.353 E6.95195
G1 X46.931 Y71.234 E6.97225
G1 X46.437 Y71.039 E6.99258
G1 X45.979 Y70.772 E7.01287
G1 X45.565 Y70.439 E7.0332
G1 X45.207 Y70.048 E7.05349
G1 X44.911 Y69.607 E7.07381
G1 X44.685 Y69.127 E7.09412
G1 X44.533 Y68.619 E7.11441
G1 X44.452 Y67.868 E7.14332
G1 X44.452 Y52.132 E7.74553
G1 X44.492 Y51.603 E7.76584
G1 X44.611 Y51.086 E7.78614
G1 X44.806 Y50.592 E7.80646
G1 X45.073 Y50.134 E7.82675
G1 X45.304 Y49.847 E7.84085
G0 F1620 X45.406 Y49.72
G0 X45.797 Y49.362
G0 F4320 X45.751 Y49.868
G1 F2400 E7.86741
G1 F1800 X46.137 Y49.545 E7.88667
G1 X46.569 Y49.286 E7.90595
G1 X47.037 Y49.099 E7.92524
G1 X47.528 Y48.989 E7.94449
G1 X47.977 Y48.957 E7.96172
G1 X72.023 Y48.958 E8.88196
G1 X72.525 Y48.998 E8.90123
G1 X73.014 Y49.117 E8.92049
G1 X73.479 Y49.311 E8.93977
G1 X73.907 Y49.577 E8.95906
G1 X74.287 Y49.907 E8.97832
G1 X74.611 Y50.293 E8.99761
G1 X74.869 Y50.725 E9.01686
G1 X75.056 Y51.193 E9.03615
G1 X75.166 Y51.684 E9.05541
G1 X75.198 Y52.133 E9.07263
G1 X75.198 Y67.868 E9.67481
G1 X75.158 Y68.37 E9.69408
G1 X75.039 Y68.859 E9.71334
G1 X74.845 Y69.324 E9.73262
G1 X74.579 Y69.752 E9.75191
G1 X74.249 Y70.132 E9.77117
G1 X73.863 Y70.455 E9.79043
G1 X73.431 Y70.714 E9.80971
G1 X72.963 Y70.901 E9.829
G1 X72.472 Y71.011 E9.84825
G1 X72.023 Y71.043 E9.86548
G1 X47.977 Y71.043 E10.78572
G1 X47.475 Y71.003 E10.80499
G1 X46.986 Y70.884 E10.82425
G1 X46.521 Y70.69 E10.84353
G1 X46.093 Y70.424 E10.86282
G1 X45.713 Y70.094 E10.88208
G1 X45.39 Y69.708 E10.90134
G1 X45.131 Y69.276 E10.92062
G1 X44.944 Y68.808 E10.9399
G1 X44.834 Y68.317 E10.95916
G1 X44.802 Y67.868 E10.97639
G1 X44.802 Y52.132 E11.5786
G1 X44.842 Y51.63 E11.59788
G1 X44.961 Y51.141 E11.61714
G1 X45.155 Y50.676 E11.63642
G1 X45.32 Y50.41 E11.6484
G0 F1620 X45.421 Y50.248
G0 X45.751 Y49.868
G1 F2400 E9.1484
;MESH:femu-stencil-jig.stl
G0 F4320 X48.357 Y51.458
G0 X48.357 Y52.512
G0 X51.936 Y53.155
G0 X52.093 Y53.248
;TYPE:WALL-INNER
G1 F2400 E11.67496
G1 F1800 X52.093 Y66.752 E12.19175
G1 X70.907 Y66.752 E12.91176
G1 X70.907 Y53.248 E13.42856
G1 X52.787 Y53.248 E14.12201
G0 F1620 X52.093 Y53.248
G0 F4320 X71.157 Y53.248
G1 F2400 E14.14857
G1 F1800 X71.157 Y66.752 E14.51771
G1 X71.157 Y67.002 E14.52728
G1 X70.907 Y67.002 E14.53685
G1 X52.093 Y67.002 E15.05114
G1 X48.843 Y67.002 E15.17552
G1 X48.843 Y52.998 E15.71145
G1 X52.093 Y52.998 E15.83583
G1 X70.907 Y52.998 E16.35012
G1 X71.157 Y52.998 E16.35969
G1 X71.157 Y53.23 E16.36857
G0 F1620 X71.157 Y53.248
G0 F4320 X71.507 Y67.352
G1 F2400 E16.36926
G1 F1800 X48.493 Y67.352 E17.25
G1 X48.493 Y52.648 E17.81272
G1 X71.507 Y52.648 E18.69347
G1 X71.507 Y66.658 E19.22963
G0 F1620 X71.507 Y67.352
G0 F4320 X52.565 Y66.28
G0 X52.443 Y53.598
G1 F2400 E19.25619
G1 F1800 X52.443 Y66.402 E19.7462
G1 X70.557 Y66.402 E20.43942
G1 X70.557 Y53.598 E20.92943
G1 X53.137 Y53.598 E21.59609
G0 F1620 X52.443 Y53.598
G0 F4320 X52.768 Y53.923
;TYPE:WALL-OUTER
G1 F2400 E21.62265
G1 F1800 X52.768 Y66.077 E22.08778
G1 X70.232 Y66.077 E22.75613
G1 X70.232 Y53.923 E23.22126
G1 X53.462 Y53.923 E23.86305
G0 F1620 X52.768 Y53.923
G0 F4320 X52.768 Y54.123
G0 X52.493 Y54.123
G0 X52.565 Y66.28
G0 X71.587 Y67.432
G0 X71.832 Y67.677
G1 F2400 E23.88961
G1 F1800 X48.168 Y67.677 E24.79523
G1 X48.168 Y52.323 E25.38282
G1 X71.832 Y52.323 E26.28844
G1 X71.832 Y66.983 E26.84948
G0 F1620 X71.832 Y67.677
G0 F4320 X71.632 Y67.677
G0 X71.632 Y67.402
G0 X52.008 Y66.662
G0 X51.753 Y66.662
;TYPE:SKIN
G1 F2400 E26.87604
G1 F1800 X49.183 Y66.662 E26.97439
G1 X49.183 Y53.338 E27.4843
G1 X51.753 Y53.338 E27.58266
G1 X51.753 Y65.968 E28.06601
G0 F1620 X51.753 Y66.662
G0 F4320 X52.008 Y66.662
G0 X51.944 Y66.826
G0 X49.674 Y66.917
G0 X49.674 Y66.504
G1 F2400 E28.09256
G1 F1800 X49.339 Y66.168 E28.11072
G0 F4320 X49.339 Y65.673
G1 F1800 X50.169 Y66.504 E28.15567
G0 F4320 X50.664 Y66.504
G1 F1800 X49.339 Y65.178 E28.22741
G0 F4320 X49.339 Y64.684
G1 F1800 X51.159 Y66.504 E28.32591
G0 F4320 X51.596 Y66.445
G1 F1800 X49.339 Y64.189 E28.44804
G0 F4320 X49.339 Y63.694
G1 F1800 X51.596 Y65.95 E28.57016
G0 F4320 X51.596 Y65.455
G1 F1800 X49.339 Y63.199 E28.69229
G0 F4320 X49.339 Y62.704
G1 F1800 X51.596 Y64.96 E28.81442
G0 F4320 X51.596 Y64.465
G1 F1800 X49.339 Y62.209 E28.93654
G0 F4320 X49.339 Y61.714
G1 F1800 X51.596 Y63.97 E29.05867
G0 F4320 X51.596 Y63.475
G1 F1800 X49.339 Y61.219 E29.18079
G0 F4320 X49.339 Y60.724
G1 F1800 X51.596 Y62.98 E29.30292
G0 F4320 X51.596 Y62.485
G1 F1800 X49.339 Y60.229 E29.42505
G0 F4320 X49.339 Y59.734
G1 F1800 X51.596 Y61.99 E29.54717
G0 F4320 X51.596 Y61.495
G1 F1800 X49.339 Y59.239 E29.6693
G0 F4320 X49.339 Y58.744
G1 F1800 X51.596 Y61 E29.79142
G0 F4320 X51.596 Y60.505
G1 F1800 X49.339 Y58.249 E29.91355
G0 F4320 X49.339 Y57.754
G1 F1800 X51.596 Y60.01 E30.03568
G0 F4320 X51.596 Y59.515
G1 F1800 X49.339 Y57.259 E30.1578
G0 F4320 X49.339 Y56.764
G1 F1800 X51.596 Y59.02 E30.27993
G0 F4320 X51.596 Y58.525
M104 S200
G1 F1800 X49.339 Y56.269 E30.40205
G0 F4320 X49.339 Y55.774
G1 F1800 X51.596 Y58.03 E30.52418
G0 F4320 X51.596 Y57.535
G1 F1800 X49.339 Y55.279 E30.64631
G0 F4320 X49.339 Y54.784
G1 F1800 X51.596 Y57.04 E30.76843
G0 F4320 X51.596 Y56.545
G1 F1800 X49.339 Y54.289 E30.89056
G0 F4320 X49.339 Y53.794
G1 F1800 X51.596 Y56.05 E31.01268
G0 F4320 X51.596 Y55.555
G1 F1800 X49.534 Y53.494 E31.12426
G0 F4320 X50.029 Y53.494
G1 F1800 X51.596 Y55.06 E31.20904
G0 F4320 X51.596 Y54.566
G1 F1800 X50.524 Y53.494 E31.26706
G0 F4320 X51.019 Y53.494
G1 F1800 X51.596 Y54.071 E31.29828
G0 F4320 X51.596 Y53.576
G1 F1800 X51.514 Y53.494 E31.30272
G0 F4320 X51.514 Y52.848
;MESH:NONMESH
G0 X52.093 Y53.248
;TIME_ELAPSED:58.889543
;LAYER:1
M140 S60
M106 S255
;MESH:femu-stencil-jig.stl
G0 F5760 X52.093 Y53.248 Z0.394
;TYPE:WALL-INNER
G1 F2400 X52.093 Y66.752 E31.56014
G1 X70.907 Y66.752 E31.91878
G1 X70.907 Y53.248 E32.17619
G1 X53.487 Y53.248 E32.50826
G0 F2160 X52.093 Y53.248
G0 F5760 X71.157 Y53.248
G1 F2400 E32.53483
G1 X71.157 Y66.752 E32.7187
G1 X71.157 Y67.002 E32.72346
G1 X70.907 Y67.002 E32.72823
G1 X52.093 Y67.002 E32.9844
G1 X48.843 Y67.002 E33.04635
G1 X48.843 Y52.998 E33.3133
G1 X52.093 Y52.998 E33.37525
G1 X70.907 Y52.998 E33.63142
G1 X71.157 Y52.998 E33.63618
G1 X71.157 Y53.23 E33.64061
G0 F2160 X71.157 Y53.248
G0 F5760 X71.507 Y67.352
G1 F2400 E33.64095
G1 X48.493 Y67.352 E34.07965
G1 X48.493 Y52.648 E34.35994
G1 X71.507 Y52.648 E34.79863
G1 X71.507 Y65.958 E35.05235
G0 F2160 X71.507 Y67.352
G0 F5760 X52.565 Y66.28
G0 X52.443 Y53.598
G1 F2400 E35.07893
G1 X52.443 Y66.402 E35.323
G1 X70.557 Y66.402 E35.66829
G1 X70.557 Y53.598 E35.91236
G1 X53.837 Y53.598 E36.23108
G0 F2160 X52.443 Y53.598
G0 F5760 X52.768 Y53.923
;TYPE:WALL-OUTER
G1 F2400 E36.25766
G1 F2025 X52.768 Y66.077 E36.48934
G1 X70.232 Y66.077 E36.82224
G1 X70.232 Y53.923 E37.05392
G1 X54.162 Y53.923 E37.36025
G0 F1822.5 X52.768 Y53.923
G0 F5760 X52.768 Y54.123
G0 X52.493 Y54.123
G0 X52.565 Y66.28
G0 X71.587 Y67.432
G0 X71.832 Y67.677
G1 F2400 E37.38683
G1 F2025 X48.168 Y67.677 E37.83791
G1 X48.168 Y52.323 E38.1306
G1 X71.832 Y52.323 E38.58168
G1 X71.832 Y66.283 E38.84779
G0 F1822.5 X71.832 Y67.677
G0 F5760 X71.632 Y67.677
G0 X71.632 Y67.402
G0 X52.008 Y66.662
G0 X51.753 Y66.662
;TYPE:SKIN
G1 F2400 E38.87437
G1 F1500 X49.183 Y66.662 E38.92336
G1 X49.183 Y53.338 E39.17734
G1 X51.753 Y53.338 E39.22633
G1 X51.753 Y65.268 E39.45374
G0 F1350 X51.753 Y66.662
G0 F5760 X51.299 Y66.504
G1 F2400 E39.48031
G1 F1500 X51.596 Y66.207 E39.48832
G0 F5760 X51.596 Y65.712
G1 F1500 X50.804 Y66.504 E39.50967
G0 F5760 X50.309 Y66.504
G1 F1500 X51.596 Y65.217 E39.54437
G0 F5760 X51.596 Y64.722
G1 F1500 X49.814 Y66.504 E39.59241
G0 F5760 X49.339 Y66.484
G1 F1500 X51.596 Y64.227 E39.65325
G0 F5760 X51.596 Y63.732
G1 F1500 X49.339 Y65.989 E39.7141
G0 F5760 X49.339 Y65.494
G1 F1500 X51.596 Y63.237 E39.77494
G0 F5760 X51.596 Y62.742
G1 F1500 X49.339 Y64.999 E39.83578
G0 F5760 X49.339 Y64.504
G1 F1500 X51.596 Y62.248 E39.89661
G0 F5760 X51.596 Y61.753
G1 F1500 X49.339 Y64.009 E39.95745
G0 F5760 X49.339 Y63.514
G1 F1500 X51.596 Y61.258 E40.01828
G0 F5760 X51.596 Y60.763
G1 F1500 X49.339 Y63.019 E40.07911
G0 F5760 X49.339 Y62.524
G1 F1500 X51.596 Y60.268 E40.13994
G0 F5760 X51.596 Y59.773
G1 F1500 X49.339 Y62.029 E40.20077
G0 F5760 X49.339 Y61.534
G1 F1500 X51.596 Y59.278 E40.2616
G0 F5760 X51.596 Y58.783
G1 F1500 X49.339 Y61.039 E40.32243
G0 F5760 X49.339 Y60.544
G1 F1500 X51.596 Y58.288 E40.38326
G0 F5760 X51.596 Y57.793
G1 F1500 X49.339 Y60.049 E40.44409
G0 F5760 X49.339 Y59.554
G1 F1500 X51.596 Y57.298 E40.50492
G0 F5760 X51.596 Y56.803
G1 F1500 X49.339 Y59.059 E40.56575
G0 F5760 X49.339 Y58.564
G1 F1500 X51.596 Y56.308 E40.62658
G0 F5760 X51.596 Y55.813
G1 F1500 X49.339 Y58.069 E40.68742
G0 F5760 X49.339 Y57.574
G1 F1500 X51.596 Y55.318 E40.74825
G0 F5760 X51.596 Y54.823
G1 F1500 X49.339 Y57.079 E40.80908
G0 F5760 X49.339 Y56.584
G1 F1500 X51.596 Y54.328 E40.86991
G0 F5760 X51.596 Y53.833
G1 F1500 X49.339 Y56.089 E40.93074
G0 F5760 X49.339 Y55.594
G1 F1500 X51.44 Y53.494 E40.98736
G0 F5760 X50.945 Y53.494
G1 F1500 X49.339 Y55.099 E41.03065
G0 F5760 X49.339 Y54.604
G1 F1500 X50.45 Y53.494 E41.06058
G0 F5760 X49.955 Y53.494
G1 F1500 X49.339 Y54.109 E41.07717
G0 F5760 X49.339 Y53.614
G1 F1500 X49.46 Y53.494 E41.08042
G0 F5760 X49.46 Y52.848
;MESH:NONMESH
G0 X51.936 Y53.155
G0 X52.093 Y53.248
;TIME_ELAPSED:78.475302
;LAYER:2
;MESH:femu-stencil-jig.stl
G0 F7200 X52.093 Y53.248 Z0.525
;TYPE:WALL-INNER
G1 F3000 X52.093 Y66.752 E41.33784
G1 X70.907 Y66.752 E41.69648
G1 X70.907 Y53.248 E41.95389
G1 X53.487 Y53.248 E42.28596
G0 F2700 X52.093 Y53.248
G0 F7200 X71.157 Y53.248
G1 F2400 E42.31253
G1 F3000 X71.157 Y66.752 E42.4964
G1 X71.157 Y67.002 E42.50116
G1 X70.907 Y67.002 E42.50593
G1 X52.093 Y67.002 E42.7621
G1 X48.843 Y67.002 E42.82405
G1 X48.843 Y52.998 E43.091
G1 X52.093 Y52.998 E43.15295
G1 X70.907 Y52.998 E43.40912
G1 X71.157 Y52.998 E43.41388
G1 X71.157 Y53.23 E43.41831
G0 F2700 X71.157 Y53.248
G0 F7200 X71.507 Y67.352
G1 F2400 E43.41865
G1 F3000 X48.493 Y67.352 E43.85735
G1 X48.493 Y52.648 E44.13764
G1 X71.507 Y52.648 E44.57634
G1 X71.507 Y65.958 E44.83005
G0 F2700 X71.507 Y67.352
G0 F7200 X52.565 Y66.28
G0 X52.443 Y53.598
G1 F2400 E44.85663
G1 F3000 X52.443 Y66.402 E45.1007
G1 X70.557 Y66.402 E45.44599
G1 X70.557 Y53.598 E45.69006
G1 X53.837 Y53.598 E46.00878
G0 F2700 X52.443 Y53.598
G0 F7200 X52.768 Y53.923
;TYPE:WALL-OUTER
G1 F2400 E46.03536
G1 F2250 X52.768 Y66.077 E46.26704
G1 X70.232 Y66.077 E46.59994
G1 X70.232 Y53.923 E46.83162
G1 X54.162 Y53.923 E47.13795
G0 F2025 X52.768 Y53.923
G0 F7200 X52.768 Y54.123
G0 X52.493 Y54.123
G0 X52.565 Y66.28
G0 X71.587 Y67.432
G0 X71.832 Y67.677
G1 F2400 E47.16453
G1 F2250 X48.168 Y67.677 E47.61561
G1 X48.168 Y52.323 E47.9083
G1 X71.832 Y52.323 E48.35938
G1 X71.832 Y66.283 E48.62549
G0 F2025 X71.832 Y67.677
G0 F7200 X71.632 Y67.677
G0 X71.632 Y67.402
G0 X52.008 Y66.662
G0 X51.753 Y66.662
;TYPE:SKIN
G1 F2400 E48.65207
G1 F1200 X49.183 Y66.662 E48.70106
G1 X49.183 Y53.338 E48.95504
G1 X51.753 Y53.338 E49.00403
G1 X51.753 Y65.268 E49.23144
G0 F1080 X51.753 Y66.662
G0 F7200 X52.008 Y66.662
G0 X51.944 Y66.826
G0 X49.674 Y66.917
G0 X49.674 Y66.504
G1 F2400 E49.25802
G1 F1200 X49.339 Y66.168 E49.26706
G0 F7200 X49.339 Y65.673
G1 F1200 X50.169 Y66.504 E49.28945
G0 F7200 X50.664 Y66.504
G1 F1200 X49.339 Y65.178 E49.32518
G0 F7200 X49.339 Y64.684
G1 F1200 X51.159 Y66.504 E49.37424
G0 F7200 X51.596 Y66.445
G1 F1200 X49.339 Y64.189 E49.43508
G0 F7200 X49.339 Y63.694
G1 F1200 X51.596 Y65.95 E49.49591
G0 F7200 X51.596 Y65.455
G1 F1200 X49.339 Y63.199 E49.55674
G0 F7200 X49.339 Y62.704
G1 F1200 X51.596 Y64.96 E49.61757
G0 F7200 X51.596 Y64.465
G1 F1200 X49.339 Y62.209 E49.6784
G0 F7200 X49.339 Y61.714
G1 F1200 X51.596 Y63.97 E49.73923
G0 F7200 X51.596 Y63.475
G1 F1200 X49.339 Y61.219 E49.80006
G0 F7200 X49.339 Y60.724
G1 F1200 X51.596 Y62.98 E49.86089
G0 F7200 X51.596 Y62.485
G1 F1200 X49.339 Y60.229 E49.92172
G0 F7200 X49.339 Y59.734
G1 F1200 X51.596 Y61.99 E49.98255
G0 F7200 X51.596 Y61.495
G1 F1200 X49.339 Y59.239 E50.04338
G0 F7200 X49.339 Y58.744
G1 F1200 X51.596 Y61 E50.10421
G0 F7200 X51.596 Y60.505
G1 F1200 X49.339 Y58.249 E50.16505
G0 F7200 X49.339 Y57.754
G1 F1200 X51.596 Y60.01 E50.22588
G0 F7200 X51.596 Y59.515
G1 F1200 X49.339 Y57.259 E50.28671
G0 F7200 X49.339 Y56.764
G1 F1200 X51.596 Y59.02 E50.34754
G0 F7200 X51.596 Y58.525
G1 F1200 X49.339 Y56.269 E50.40837
G0 F7200 X49.339 Y55.774
G1 F1200 X51.596 Y58.03 E50.4692
G0 F7200 X51.596 Y57.535
G1 F1200 X49.339 Y55.279 E50.53003
G0 F7200 X49.339 Y54.784
G1 F1200 X51.596 Y57.04 E50.59086
G0 F7200 X51.596 Y56.545
G1 F1200 X49.339 Y54.289 E50.65169
G0 F7200 X49.339 Y53.794
G1 F1200 X51.596 Y56.05 E50.71252
G0 F7200 X51.596 Y55.555
G1 F1200 X49.534 Y53.494 E50.7681
G0 F7200 X50.029 Y53.494
G1 F1200 X51.596 Y55.06 E50.81033
G0 F7200 X51.596 Y54.566
G1 F1200 X50.524 Y53.494 E50.83923
G0 F7200 X51.019 Y53.494
G1 F1200 X51.596 Y54.071 E50.85478
G0 F7200 X51.596 Y53.576
G1 F1200 X51.514 Y53.494 E50.85699
G0 F7200 X51.514 Y52.848
;MESH:NONMESH
G0 X52.093 Y53.248
;TIME_ELAPSED:97.633728
;LAYER:3
;MESH:femu-stencil-jig.stl
G0 X52.093 Y53.248 Z0.656
