;FLAVOR:Marlin
;TIME:1583
;Filament used: 0.689289m
;Layer height: 0.13125
;Generated with Cura_SteamEngine 4.0.0
M140 S65
M105
M190 S65
M104 S205
M105
M109 S205
M82 ;absolute extrusion mode
G21;(metric values)
G90;(absolute positioning)
M82;(set extruder to absolute mode)
M107;(start with the fan off)
G28;(Home the printer)
G92 E0;(Reset the extruder to 0)
G0 Z5 E5 F500;(Move up and prime the nozzle)
G0 X-1 Z0;(Move outside the printable area)
G1 Y60 E8 F500;(Draw a priming/wiping line to the rear)
G1 X-1;(Move a little closer to the print area)
G1 Y10 E16 F500;(draw more priming/wiping)
G1 E15 F250;(Small retract)
G92 E0;(Zero the extruder)
G92 E0
G1 F2400 E-2.5
;LAYER_COUNT:45
;LAYER:0
M107
G0 F4320 X34.828 Y41.695 Z0.263
;TYPE:SKIRT
G1 F2400 E0
G1 F1800 X35.269 Y41.399 E0.02033
G1 X35.749 Y41.173 E0.04063
G1 X36.257 Y41.021 E0.06092
G1 X37.008 Y40.94 E0.08983
G1 X82.992 Y40.941 E1.84964
G1 X83.521 Y40.981 E1.86994
G1 X84.038 Y41.1 E1.89024
G1 X84.532 Y41.295 E1.91057
G1 X84.99 Y41.562 E1.93085
G1 X85.404 Y41.895 E1.95119
G1 X85.762 Y42.286 E1.97148
G1 X86.058 Y42.727 E1.9918
G1 X86.284 Y43.207 E2.01211
G1 X86.436 Y43.715 E2.0324
G1 X86.517 Y44.466 E2.06131
G1 X86.517 Y75.535 E3.25031
G1 X86.477 Y76.064 E3.27062
G1 X86.358 Y76.581 E3.29092
G1 X86.163 Y77.075 E3.31125
G1 X85.896 Y77.533 E3.33153
G1 X85.563 Y77.947 E3.35187
G1 X85.172 Y78.305 E3.37216
G1 X84.731 Y78.601 E3.39248
G1 X84.251 Y78.827 E3.41279
G1 X83.743 Y78.979 E3.43308
G1 X82.992 Y79.06 E3.46199
G1 X37.008 Y79.06 E5.22179
G1 X36.479 Y79.02 E5.24209
G1 X35.962 Y78.901 E5.2624
G1 X35.468 Y78.706 E5.28272
G1 X35.01 Y78.439 E5.30301
G1 X34.596 Y78.106 E5.32334
G1 X34.238 Y77.715 E5.34363
G1 X33.942 Y77.274 E5.36396
G1 X33.716 Y76.794 E5.38426
G1 X33.564 Y76.286 E5.40455
G1 X33.483 Y75.535 E5.43346
G1 X33.483 Y44.465 E6.62251
G1 X33.523 Y43.936 E6.64281
G1 X33.642 Y43.419 E6.66311
G1 X33.837 Y42.925 E6.68344
G1 X34.104 Y42.467 E6.70373
G1 X34.335 Y42.18 E6.71783
G0 F1620 X34.437 Y42.053
G0 X34.828 Y41.695
G0 F4320 X35.168 Y41.878
G1 F2400 E6.74439
G1 F1800 X35.6 Y41.619 E6.76366
G1 X36.068 Y41.432 E6.78295
G1 X36.559 Y41.322 E6.80221
G1 X37.008 Y41.29 E6.81943
G1 X82.992 Y41.291 E8.57924
G1 X83.494 Y41.331 E8.59851
G1 X83.983 Y41.45 E8.61777
G1 X84.448 Y41.644 E8.63705
G1 X84.876 Y41.91 E8.65634
G1 X85.256 Y42.24 E8.6756
G1 X85.58 Y42.626 E8.69488
G1 X85.838 Y43.058 E8.71414
G1 X86.025 Y43.526 E8.73343
G1 X86.135 Y44.017 E8.75268
G1 X86.167 Y44.466 E8.76991
G1 X86.167 Y75.535 E9.95892
G1 X86.127 Y76.037 E9.97819
G1 X86.008 Y76.526 E9.99745
G1 X85.814 Y76.991 E10.01673
G1 X85.548 Y77.419 E10.03602
G1 X85.218 Y77.799 E10.05528
G1 X84.832 Y78.122 E10.07454
G1 X84.4 Y78.381 E10.09382
G1 X83.932 Y78.568 E10.11311
G1 X83.441 Y78.678 E10.13236
G1 X82.992 Y78.71 E10.14959
G1 X37.008 Y78.71 E11.90939
G1 X36.506 Y78.67 E11.92867
G1 X36.017 Y78.551 E11.94793
G1 X35.552 Y78.357 E11.96721
G1 X35.124 Y78.091 E11.98649
G1 X34.744 Y77.761 E12.00576
G1 X34.421 Y77.375 E12.02502
G1 X34.162 Y76.943 E12.04429
G1 X33.975 Y76.475 E12.06358
G1 X33.865 Y75.984 E12.08284
G1 X33.833 Y75.535 E12.10006
G1 X33.833 Y44.465 E13.28911
G1 X33.873 Y43.963 E13.30838
G1 X33.992 Y43.474 E13.32764
G1 X34.186 Y43.009 E13.34693
G1 X34.452 Y42.581 E13.36621
G1 X34.657 Y42.345 E13.37817
G0 F1620 X34.782 Y42.201
G0 X35.168 Y41.878
G1 F2400 E10.87817
;MESH:femu-2layer-1.0.3-jig-Cube.stl
G0 F4320 X36.371 Y44.028
G0 X36.392 Y44.066
G0 X40.884 Y52.09
G0 X40.905 Y52.128
G0 X40.927 Y52.165
G0 X40.927 Y50.48
G0 X39.125 Y50.625
;TYPE:WALL-INNER
G1 F2400 E13.40473
G1 F1800 X39.125 Y67.375 E14.04575
G1 X80.875 Y67.375 E15.64352
G1 X80.875 Y50.625 E16.28455
G1 X39.819 Y50.625 E17.85576
G0 F1620 X39.125 Y50.625
G1 F2400 E15.35576
G0 F4320 X39.597 Y66.903
G0 X81.046 Y67.546
G0 X81.941 Y67.546
G0 X81.94 Y67.518
G0 X81.941 Y67.59
G0 X82.126 Y74.669
G1 F2400 E17.88232
G1 F1800 X37.874 Y74.669 E19.57584
G1 X37.874 Y45.331 E20.6986
G1 X82.126 Y45.331 E22.39212
G1 X82.126 Y73.975 E23.48833
G0 F1620 X82.126 Y74.669
G0 F4320 X82.476 Y75.019
G1 F2400 E23.51489
G1 F1800 X37.524 Y75.019 E25.2352
G1 X37.524 Y44.981 E26.38475
G1 X82.476 Y44.981 E28.10506
G1 X82.476 Y74.325 E29.22805
G0 F1620 X82.476 Y75.019
G1 F2400 E26.72805
G0 F4320 X39.475 Y74.484
G0 X39.475 Y76.209
G0 X39.478 Y76.171
G0 X39.482 Y76.127
G0 X40.62 Y64.05
G0 X40.626 Y63.986
G0 X40.665 Y63.586
G0 X38.98 Y63.586
G0 X39.475 Y50.975
G1 F2400 E29.25461
G1 F1800 X39.475 Y67.025 E29.86885
G1 X80.525 Y67.025 E31.43983
G1 X80.525 Y50.975 E32.05406
G1 X40.169 Y50.975 E33.59848
G0 F1620 X39.475 Y50.975
G0 F4320 X39.8 Y51.3
;TYPE:WALL-OUTER
G1 F2400 E33.62504
G1 F1800 X39.8 Y66.7 E34.2144
G1 X80.2 Y66.7 E35.7605
G1 X80.2 Y51.3 E36.34986
G1 X40.494 Y51.3 E37.86941
G0 F1620 X39.8 Y51.3
G0 F4320 X39.8 Y51.5
G1 F2400 E35.36941
G0 F4320 X39.525 Y51.5
G0 X39.597 Y66.903
G0 X81.046 Y67.546
G0 X81.941 Y67.546
G0 X82.526 Y75.099
G0 X82.801 Y75.344
G1 F2400 E37.89597
G1 F1800 X37.199 Y75.344 E39.64115
G1 X37.199 Y44.656 E40.81558
G1 X82.801 Y44.656 E42.56077
G1 X82.801 Y74.65 E43.70863
G0 F1620 X82.801 Y75.344
G0 F4320 X82.601 Y75.344
G0 X82.601 Y75.069
G0 X82.041 Y74.329
G0 X81.786 Y74.329
;TYPE:SKIN
G1 F2400 E43.73519
G1 F1800 X38.214 Y74.329 E45.40269
G1 X38.214 Y45.671 E46.49943
G1 X81.786 Y45.671 E48.16693
G1 X81.786 Y73.635 E49.23711
G0 F1620 X81.786 Y74.329
G1 F2400 E46.73711
G0 F4320 X82.041 Y74.329
G0 X81.941 Y67.539
G0 X81.94 Y67.459
G0 X81.941 Y67.49
G0 X81.04 Y67.49
G0 X80.96 Y67.49
G0 X81.215 Y67.715
G1 F2400 E49.26367
G1 F1800 X81.215 Y50.285 E49.93071
G1 X38.785 Y50.285 E51.55451
G1 X38.785 Y67.715 E52.22155
G1 X80.521 Y67.715 E53.81879
G0 F1620 X81.215 Y67.715
G1 F2400 E51.31879
G0 F4320 X80.96 Y67.49
G0 X81.046 Y50.454
G0 X81.941 Y50.454
G0 X82.041 Y45.99
G0 X81.628 Y45.99
G1 F2400 E53.84535
G1 F1800 X81.465 Y45.827 E53.85417
G0 F4320 X80.97 Y45.827
G1 F1800 X81.628 Y46.485 E53.88978
G0 F4320 X81.628 Y46.98
G1 F1800 X80.475 Y45.827 E53.95218
G0 F4320 X79.98 Y45.827
G1 F1800 X81.628 Y47.475 E54.04138
G0 F4320 X81.628 Y47.97
G1 F1800 X79.485 Y45.827 E54.15736
G0 F4320 X78.99 Y45.827
G1 F1800 X81.628 Y48.465 E54.30013
G0 F4320 X81.628 Y48.96
G1 F1800 X78.495 Y45.827 E54.4697
G0 F4320 X78 Y45.827
G1 F1800 X81.628 Y49.455 E54.66605
G0 F4320 X81.628 Y49.95
G1 F1800 X77.505 Y45.827 E54.8892
G0 F4320 X77.01 Y45.827
G1 F1800 X81.31 Y50.127 E55.12192
G0 F4320 X81.371 Y50.187
G1 F1800 X81.628 Y50.444 E55.13583
G0 F4320 X81.371 Y50.682
G1 F1800 X81.628 Y50.939 E55.14974
G0 F4320 X81.371 Y51.177
G1 F1800 X81.628 Y51.434 E55.16365
G0 F4320 X81.371 Y51.672
G1 F1800 X81.628 Y51.929 E55.17756
G0 F4320 X81.371 Y52.167
G1 F1800 X81.628 Y52.424 E55.19147
G0 F4320 X81.371 Y52.662
G1 F1800 X81.628 Y52.919 E55.20538
G0 F4320 X81.371 Y53.157
G1 F1800 X81.628 Y53.414 E55.21929
G0 F4320 X81.371 Y53.652
G1 F1800 X81.628 Y53.909 E55.23319
G0 F4320 X81.371 Y54.147
G1 F1800 X81.628 Y54.404 E55.2471
G0 F4320 X81.371 Y54.642
G1 F1800 X81.628 Y54.899 E55.26101
G0 F4320 X81.371 Y55.137
G1 F1800 X81.628 Y55.394 E55.27492
G0 F4320 X81.371 Y55.632
G1 F1800 X81.628 Y55.889 E55.28883
G0 F4320 X81.371 Y56.127
G1 F1800 X81.628 Y56.384 E55.30274
G0 F4320 X81.371 Y56.622
G1 F1800 X81.628 Y56.879 E55.31665
G0 F4320 X81.371 Y57.117
G1 F1800 X81.628 Y57.374 E55.33056
G0 F4320 X81.371 Y57.612
G1 F1800 X81.628 Y57.869 E55.34447
G0 F4320 X81.371 Y58.107
G1 F1800 X81.628 Y58.364 E55.35838
G0 F4320 X81.371 Y58.602
G1 F1800 X81.628 Y58.859 E55.37229
G0 F4320 X81.371 Y59.097
G1 F1800 X81.628 Y59.354 E55.3862
G0 F4320 X81.371 Y59.592
G1 F1800 X81.628 Y59.849 E55.40011
G0 F4320 X81.371 Y60.087
G1 F1800 X81.628 Y60.344 E55.41402
G0 F4320 X81.371 Y60.582
G1 F1800 X81.628 Y60.839 E55.42792
G0 F4320 X81.371 Y61.077
G1 F1800 X81.628 Y61.334 E55.44183
G0 F4320 X81.371 Y61.572
G1 F1800 X81.628 Y61.829 E55.45574
G0 F4320 X81.371 Y62.067
G1 F1800 X81.628 Y62.324 E55.46965
G0 F4320 X81.371 Y62.561
G1 F1800 X81.628 Y62.819 E55.48359
G0 F4320 X81.371 Y63.056
G1 F1800 X81.628 Y63.314 E55.49753
G0 F4320 X81.371 Y63.551
G1 F1800 X81.628 Y63.809 E55.51146
G0 F4320 X81.371 Y64.046
G1 F1800 X81.628 Y64.304 E55.5254
G0 F4320 X81.371 Y64.541
G1 F1800 X81.628 Y64.799 E55.53933
G0 F4320 X81.371 Y65.036
G1 F1800 X81.628 Y65.294 E55.55327
G0 F4320 X81.371 Y65.531
G1 F1800 X81.628 Y65.789 E55.56721
G0 F4320 X81.371 Y66.026
G1 F1800 X81.628 Y66.284 E55.58114
G0 F4320 X81.371 Y66.521
G1 F1800 X81.628 Y66.779 E55.59508
G0 F4320 X81.371 Y67.016
G1 F1800 X81.628 Y67.274 E55.60902
G0 F4320 X81.371 Y67.511
G1 F1800 X81.628 Y67.769 E55.62295
G0 F4320 X81.236 Y67.872
G1 F1800 X81.628 Y68.264 E55.64417
G0 F4320 X81.628 Y68.759
G1 F1800 X80.741 Y67.872 E55.69218
G0 F4320 X80.246 Y67.872
G1 F1800 X81.628 Y69.254 E55.76697
G0 F4320 X81.628 Y69.749
G1 F1800 X79.751 Y67.872 E55.86856
G0 F4320 X79.256 Y67.872
G1 F1800 X81.628 Y70.243 E55.99691
G0 F4320 X81.628 Y70.738
G1 F1800 X78.761 Y67.872 E56.15205
G0 F4320 X78.266 Y67.872
G1 F1800 X81.628 Y71.233 E56.33398
G0 F4320 X81.628 Y71.728
G1 F1800 X77.771 Y67.872 E56.5427
G0 F4320 X77.276 Y67.872
G1 F1800 X81.628 Y72.223 E56.77821
G0 F4320 X81.628 Y72.718
G1 F1800 X76.781 Y67.872 E57.04051
G0 F4320 X76.286 Y67.872
G1 F1800 X81.628 Y73.213 E57.32961
G0 F4320 X81.628 Y73.708
G1 F1800 X75.791 Y67.872 E57.64549
G0 F4320 X75.296 Y67.872
G1 F1800 X81.595 Y74.171 E57.9864
G0 F4320 X81.1 Y74.171
G1 F1800 X74.801 Y67.872 E58.32732
G0 F4320 X74.307 Y67.872
G1 F1800 X80.605 Y74.171 E58.6682
G0 F4320 X80.11 Y74.171
G1 F1800 X73.812 Y67.872 E59.00909
G0 F4320 X73.317 Y67.872
G1 F1800 X79.615 Y74.171 E59.34997
G0 F4320 X79.121 Y74.171
G1 F1800 X72.822 Y67.872 E59.69089
G0 F4320 X72.327 Y67.872
G1 F1800 X78.626 Y74.171 E60.0318
G0 F4320 X78.131 Y74.171
G1 F1800 X71.832 Y67.872 E60.37272
G0 F4320 X71.337 Y67.872
G1 F1800 X77.636 Y74.171 E60.71363
G0 F4320 X77.141 Y74.171
G1 F1800 X70.842 Y67.872 E61.05454
G0 F4320 X70.347 Y67.872
G1 F1800 X76.646 Y74.171 E61.39546
G0 F4320 X76.151 Y74.171
G1 F1800 X69.852 Y67.872 E61.73637
G0 F4320 X69.357 Y67.872
G1 F1800 X75.656 Y74.171 E62.07728
G0 F4320 X75.161 Y74.171
G1 F1800 X68.862 Y67.872 E62.4182
G0 F4320 X68.367 Y67.872
G1 F1800 X74.666 Y74.171 E62.75911
G0 F4320 X74.171 Y74.171
G1 F1800 X67.872 Y67.872 E63.10003
G0 F4320 X67.377 Y67.872
G1 F1800 X73.676 Y74.171 E63.44094
G0 F4320 X73.181 Y74.171
G1 F1800 X66.882 Y67.872 E63.78185
G0 F4320 X66.387 Y67.872
G1 F1800 X72.686 Y74.171 E64.12277
G0 F4320 X72.191 Y74.171
G1 F1800 X65.892 Y67.872 E64.46368
G0 F4320 X65.397 Y67.872
G1 F1800 X71.696 Y74.171 E64.80459
G0 F4320 X71.201 Y74.171
G1 F1800 X64.902 Y67.872 E65.14551
G0 F4320 X64.407 Y67.872
G1 F1800 X70.706 Y74.171 E65.48642
G0 F4320 X70.211 Y74.171
G1 F1800 X63.912 Y67.872 E65.82733
G0 F4320 X63.417 Y67.872
G1 F1800 X69.716 Y74.171 E66.16825
G0 F4320 X69.221 Y74.171
G1 F1800 X62.922 Y67.872 E66.50916
G0 F4320 X62.427 Y67.872
G1 F1800 X68.726 Y74.171 E66.85008
G0 F4320 X68.231 Y74.171
G1 F1800 X61.932 Y67.872 E67.19099
G0 F4320 X61.437 Y67.872
G1 F1800 X67.736 Y74.171 E67.5319
G0 F4320 X67.241 Y74.171
G1 F1800 X60.942 Y67.872 E67.87282
G0 F4320 X60.447 Y67.872
G1 F1800 X66.746 Y74.171 E68.21373
G0 F4320 X66.251 Y74.171
G1 F1800 X59.952 Y67.871 E68.55467
G0 F4320 X59.457 Y67.871
G1 F1800 X65.756 Y74.171 E68.89561
G0 F4320 X65.261 Y74.171
G1 F1800 X58.962 Y67.871 E69.23655
G0 F4320 X58.467 Y67.871
G1 F1800 X64.766 Y74.171 E69.57749
G0 F4320 X64.271 Y74.171
G1 F1800 X57.972 Y67.871 E69.91843
G0 F4320 X57.477 Y67.871
G1 F1800 X63.776 Y74.171 E70.25937
G0 F4320 X63.281 Y74.171
G1 F1800 X56.982 Y67.871 E70.60032
G0 F4320 X56.487 Y67.871
G1 F1800 X62.786 Y74.171 E70.94126
G0 F4320 X62.291 Y74.171
G1 F1800 X55.992 Y67.871 E71.2822
G0 F4320 X55.497 Y67.871
G1 F1800 X61.796 Y74.171 E71.62314
G0 F4320 X61.301 Y74.171
G1 F1800 X55.002 Y67.871 E71.96408
G0 F4320 X54.507 Y67.871
G1 F1800 X60.806 Y74.171 E72.30502
G0 F4320 X60.311 Y74.171
G1 F1800 X54.012 Y67.871 E72.64596
G0 F4320 X53.517 Y67.871
G1 F1800 X59.816 Y74.171 E72.9869
G0 F4320 X59.322 Y74.171
G1 F1800 X53.022 Y67.871 E73.32787
G0 F4320 X52.527 Y67.871
G1 F1800 X58.827 Y74.171 E73.66884
G0 F4320 X58.332 Y74.171
G1 F1800 X52.032 Y67.871 E74.0098
G0 F4320 X51.537 Y67.871
G1 F1800 X57.837 Y74.171 E74.35077
G0 F4320 X57.342 Y74.171
G1 F1800 X51.042 Y67.871 E74.69174
G0 F4320 X50.547 Y67.871
G1 F1800 X56.847 Y74.171 E75.03271
G0 F4320 X56.352 Y74.171
G1 F1800 X50.052 Y67.871 E75.37368
G0 F4320 X49.557 Y67.871
G1 F1800 X55.857 Y74.171 E75.71464
G0 F4320 X55.362 Y74.171
G1 F1800 X49.062 Y67.871 E76.05561
G0 F4320 X48.567 Y67.871
G1 F1800 X54.867 Y74.171 E76.39658
G0 F4320 X54.372 Y74.171
G1 F1800 X48.072 Y67.871 E76.73755
G0 F4320 X47.577 Y67.871
G1 F1800 X53.877 Y74.171 E77.07851
G0 F4320 X53.382 Y74.171
G1 F1800 X47.082 Y67.871 E77.41948
G0 F4320 X46.587 Y67.871
G1 F1800 X52.887 Y74.171 E77.76045
G0 F4320 X52.392 Y74.171
G1 F1800 X46.092 Y67.871 E78.10142
G0 F4320 X45.597 Y67.871
G1 F1800 X51.897 Y74.171 E78.44239
G0 F4320 X51.402 Y74.171
G1 F1800 X45.102 Y67.871 E78.78335
G0 F4320 X44.607 Y67.871
G1 F1800 X50.907 Y74.171 E79.12432
G0 F4320 X50.412 Y74.171
G1 F1800 X44.112 Y67.871 E79.46529
G0 F4320 X43.617 Y67.871
G1 F1800 X49.917 Y74.171 E79.80626
G0 F4320 X49.422 Y74.171
G1 F1800 X43.122 Y67.871 E80.14722
G0 F4320 X42.627 Y67.871
G1 F1800 X48.927 Y74.171 E80.48819
G0 F4320 X48.432 Y74.171
G1 F1800 X42.132 Y67.871 E80.82916
G0 F4320 X41.637 Y67.871
G1 F1800 X47.937 Y74.171 E81.17013
G0 F4320 X47.442 Y74.171
G1 F1800 X41.143 Y67.871 E81.51107
G0 F4320 X40.648 Y67.871
G1 F1800 X46.947 Y74.171 E81.85201
G0 F4320 X46.452 Y74.171
G1 F1800 X40.153 Y67.871 E82.19295
G0 F4320 X39.658 Y67.871
G1 F1800 X45.957 Y74.171 E82.53389
G0 F4320 X45.462 Y74.171
G1 F1800 X39.163 Y67.871 E82.87483
G0 F4320 X38.668 Y67.871
G1 F1800 X44.967 Y74.171 E83.21577
G0 F4320 X44.472 Y74.171
G1 F1800 X38.37 Y68.068 E83.54605
G0 F4320 X38.627 Y67.831
G1 F1800 X38.37 Y67.573 E83.55999
G0 F4320 X38.627 Y67.336
G1 F1800 X38.37 Y67.078 E83.57392
G0 F4320 X38.627 Y66.841
G1 F1800 X38.37 Y66.584 E83.58783
G0 F4320 X38.627 Y66.346
G1 F1800 X38.37 Y66.089 E83.60174
G0 F4320 X38.627 Y65.851
G1 F1800 X38.37 Y65.594 E83.61565
G0 F4320 X38.627 Y65.356
G1 F1800 X38.37 Y65.099 E83.62956
G0 F4320 X38.627 Y64.861
G1 F1800 X38.37 Y64.604 E83.64347
G0 F4320 X38.627 Y64.366
G1 F1800 X38.37 Y64.109 E83.65738
G0 F4320 X38.627 Y63.871
G1 F1800 X38.37 Y63.614 E83.67129
G0 F4320 X38.627 Y63.376
G1 F1800 X38.37 Y63.119 E83.6852
G0 F4320 X38.627 Y62.881
G1 F1800 X38.37 Y62.624 E83.69911
G0 F4320 X38.627 Y62.386
G1 F1800 X38.37 Y62.129 E83.71302
G0 F4320 X38.627 Y61.891
G1 F1800 X38.37 Y61.634 E83.72693
G0 F4320 X38.627 Y61.396
G1 F1800 X38.37 Y61.139 E83.74084
G0 F4320 X38.627 Y60.901
G1 F1800 X38.37 Y60.644 E83.75474
G0 F4320 X38.627 Y60.406
G1 F1800 X38.37 Y60.149 E83.76865
G0 F4320 X38.627 Y59.911
G1 F1800 X38.37 Y59.654 E83.78256
G0 F4320 X38.627 Y59.416
G1 F1800 X38.37 Y59.159 E83.79647
G0 F4320 X38.627 Y58.921
G1 F1800 X38.37 Y58.664 E83.81038
G0 F4320 X38.627 Y58.426
G1 F1800 X38.37 Y58.169 E83.82429
G0 F4320 X38.627 Y57.931
G1 F1800 X38.37 Y57.674 E83.8382
G0 F4320 X38.627 Y57.436
G1 F1800 X38.37 Y57.179 E83.85211
G0 F4320 X38.627 Y56.941
G1 F1800 X38.37 Y56.684 E83.86602
G0 F4320 X38.627 Y56.446
G1 F1800 X38.37 Y56.189 E83.87993
G0 F4320 X38.627 Y55.951
G1 F1800 X38.37 Y55.694 E83.89384
G0 F4320 X38.627 Y55.456
G1 F1800 X38.37 Y55.199 E83.90775
G0 F4320 X38.627 Y54.961
G1 F1800 X38.37 Y54.704 E83.92166
G0 F4320 X38.627 Y54.467
G1 F1800 X38.37 Y54.209 E83.93559
G0 F4320 X38.627 Y53.972
G1 F1800 X38.37 Y53.714 E83.94953
G0 F4320 X38.627 Y53.477
G1 F1800 X38.37 Y53.219 E83.96347
G0 F4320 X38.627 Y52.982
G1 F1800 X38.37 Y52.724 E83.9774
G0 F4320 X38.627 Y52.487
G1 F1800 X38.37 Y52.229 E83.99134
G0 F4320 X38.627 Y51.992
G1 F1800 X38.37 Y51.734 E84.00528
G0 F4320 X38.627 Y51.497
G1 F1800 X38.37 Y51.239 E84.01921
G0 F4320 X38.627 Y51.002
G1 F1800 X38.37 Y50.744 E84.03315
G0 F4320 X38.627 Y50.507
G1 F1800 X38.37 Y50.249 E84.04708
G0 F4320 X38.742 Y50.126
G1 F1800 X38.37 Y49.754 E84.06722
G0 F4320 X38.37 Y49.259
G1 F1800 X39.237 Y50.126 E84.11414
